X:1
T:Le Papillon
T:Pièces Faciles et Agréables pour la Flûte ou Violon et Guitare 
T:Mauro Giuliani  (1781-1829)
T:Op.74
C:Giuliani
%%score { 1 ( 2 3 ) }
L:1/8
Q:3/8=66
M:6/8
K:G
V:1 treble nm="Flûte"
V:2 treble-8 nm="Classical Guitar"
V:3 treble-8 
V:1
S"^Grazioso" g3{/g} fef | g2 d' d'2 d' | b3- bc'a | g3 d2 z | g3{/g} fef | g2 d' d'2 d' | %6
 b3 d'c'a | g3 z3 | b3{/c'} bab | c'3 z2 a | ^g2 g{/a} gfg | a3 e2 z | a3{/b} aga | b3 z2 g | %14
 _b2 b bag | d2 z z3 | g3{/g} fef | g2 d' d'2 d' | b3- bc'a | g3 d2 z | g3{/g} fef | g2 d' d'2 d' | %22
 b3 d'c'a | g3 z3 | d3- dcB |{cd} e3 z3 | a3- agf |{ga} b3 z3 | d'3- d'c'b |{c'd'} e'3- e'c'a | %30
 f2 f{/g} fef | g2 z{/g} fef | g2 z{/g} fef | g2 z b2 z | g3 z3 |] %35
V:2
 z [DGB][DGB] z [DAc][DAc] | z [DGB][DGB] z [DAc][DAc] | z [DGB][DGB] z [DAc][DAc] | %3
 z [DGB][DGB] z [DGB][DGB] | z [DGB][DGB] z [DAc][DAc] | z [DGB][DGB] z [DAc][DAc] | %6
 z [DGB][DGB] z [DAc][DAc] | z [DGB][DGB] z [DGB][DGB] | z [^GBe][GBe] z [GBe][GBe] | %9
 z [Ace][Ace] z [Ace][Ace] | z [Bde][Bde] z [Bde][Bde] | z [Ace][Ace] z [Ace][Ace] | %12
 z [Acf][Acf] z [Acf][Acf] | z [GBg][GBg] z [GBg][GBg] | z [_B^cg][Bcg] z [Bcg][Bcg] | %15
 [df][ce][Bd] [Ac][GB][DA] | z [DGB][DGB] z [DAc][DAc] | z [DGB][DGB] z [DAc][DAc] | %18
 z [DGB][DGB] z [DAc][DAc] | z [DGB][DGB] z [DGB][DGB] | z [DGB][DGB] z [DAc][DAc] | %21
 z [DGB][DGB] z [DAc][DAc] | z [DGB][DGB] z [DAc][DAc] | z [DGB][DGB] z [GBg][GBg] | %24
 z [Gd=f][Gdf] z [Gdf][Gdf] | z [Gce][Gce] z [Gce][Gce] | z [DAc][DAc] z [DAc][DAc] | %27
 z [DGB][DGB] z [GBg][GBg] | z [Gd=f][Gdf] z [Gdf][Gdf] | z [Gce][Gce] z [Gce][Gce] | %30
 z [DAc][DAc] z [DAc][DAc] | z [DGB][DGB] z [DAc][DAc] | z [DGB][DGB] z [DAc][DAc] | %33
 [DGB]2 z [DGd]2 z | [GBg]3 z3 |] %35
V:3
 G,3 G,3 | G,3 G,3 | G,3 G,3 | G,3 G,3 | G,3 G,3 | G,3 G,3 | G,3 G,3 | G,3 G,3 | E,3 E,3 | %9
 E,3 E,3 | E,3 E,3 | A,3 A,3 | D3 D3 | G,3 G,3 | _E3 E3 | D3 z3 | G,3 G,3 | G,3 G,3 | G,3 G,3 | %19
 G,3 G,3 | G,3 G,3 | G,3 G,3 | G,3 G,3 | G,3 G,3 | G,3 G,3 | G,3 G,3 | G,3 G,3 | G,3 G,3 | %28
 G,3 G,3 | G,3 G,3 | G,3 G,3 | G,3 G,3 | G,3 G,3 | G,2 z G,2 z | G,3 z3 |] %35

